X: 2123
T: Atlantic Bridge
R: jig
M: 6/8
K: Aminor
|:eAA BAA|BGG GBd|eAA BAA|e3 e=fe|
edc Bcd|ec/B/A ec/B/A|BAG Aed|BAG A3:|
|:Aed ecA|e3 edc|B3 GBd|dcB BGd|
ecA g3|a3 ged|BAG Aed|BAG A z2:|

